X:1
T: Miss Margaret Church
C:Muriel A Johnstone
R:Strathspey
%Q: 128
K:D
M:4/4
L:1/16
|:D3E Dd3 A3B d3e|((3fed) a3f e3d ef3|D3E Dd3 A3B d3a|((3gfe) ((3fed) ((3cBA) ((3GFE)|
D3E Dd3 A3B d3e|((3fed) a3f e3d e3f|gd3 b3g a3f d3B|AA,3 F3E D4 D3A|
DD3 F3D A3F d3A|ff3 d3a g2f2 e2f2|DD3 F3D B3F d3B|((3cde) ((3dcB) ((3ABA) ((3GFE)|
DD3 F3D A3F d3A|ff3 d3a g2f2 e2f2|((3gbg) ((3faf) ((3efg) ((3fed) |((3cBA) ((3GFE) D8:|
